X:1
T:Regina coeli
T:Regina coeli
T:Adrian Willaert
T:Source : Fantasie, recercari, contrapunti---Libro primo---Venetia---A.Gardano---1559. Editor : André Vierendeels (11/02/14).
C:Adrian Willaert
%%score [ 1 2 3 ]
L:1/8
Q:1/4=100
M:2/2
K:F
V:1 treble-8 nm="Tenor 1" snm="T 1"
V:2 treble-8 nm="Tenor 2" snm="T 2"
V:3 bass nm="Bass" snm="B"
V:1
 z4 z2 c2- | c2 d4 cB | c2 c2 f4 | d4 d3 e | f2 c3 d _e2- | e2 d3 c c2 | BA f4 e2 | f2 c2 d4 | %8
w: Re-|* gi- * *|* na coe-|li, lae- *|* ta- * *|||re,. Re- gi-|
 c2 d3 c/B/ c2 | F3 G A2 d2- | d2 cB c2 d2- | dc B4 A2 | z2 D2 G3 F | ED E2 C2 D2- | D2 E2 F3 G | %15
w: na coe- * * *|li, _ _ lae-|* * * * ta-|* * * re,|al- le- *|* * * * lu|_ ia, al- *|
 AB c2 d2 c2- | cB A4 G2 | A4 z2 B2- | B2 A4 A2 | G2 F2 F4 | C2 c4 f2- | f2 e2 f3 e/d/ | c2 F2 f4 | %23
w: * * * le- lu-||ia, qui-|* a quem|me- ru- i-|sti, qui- a|_ quem me- * *|* ru- i-|
 d8 | z2 G4 FE | F2 G4 A2- | A2 B4 AG | B2 A2 d4- | d4 z4 | z2 G3 F _E2 |"^b" D2 E2 C2 GA | %31
w: sti|por- * *|* ta- *||* * re,|_|por- * *|ta- * re, por- *|
 BA d3 c B2 | A2 B3 A GF | _ED C2 z2 F2 | D3 E FE DC | D2 F4 E2 | FG AB c2 f2 | f2 d3 c BA | %38
w: |* ta- * * *|* * re, por-|ta- * * * * *||re, _ _ _ _ al-|le- * * * *|
 G3 A B2 c2 | A2 d4 e2- | e2 f3 e d2- | dc c2 =B2 c2 | A4 z2 c2 | c2 d3 c B2 | A2 D4 D2 | %45
w: * * * lu-|ia, al- le-|* lu- * *||ia, re-|sur- re- * *|xit, re- sur-|
 A4 A2 B2- | BA A2 F2 G2- | GF GA B2 A2 | z2 F2 E2 FE | DC D2 C2 c2- | c2 B2 A2 d2- | dc BA G3 A | %52
w: re- xit sic-|* * * ut di-|* * * * * xit,|sic- ut di- *|* * * xit, al-|* le lu- *||
 B2 c4 F2- | FG A2 G2 A2- | A2 B3 A GF | _E2 D2 C2 F2- | F2 E2 F4 | z2 C4 D2 | D2 E4 F2 | D3 E F4 | %60
w: ia, al- le|_ _ _ lu- ia,|_ al- * * *|* le- lu- *|* * ia,|o- ra|pro no- bis|de- * *|
 C4 z2 c2 | c2 G2 B4 | A2 d3 c cB/A/ | B4 A2 c2- | cB AG F2 D2 | E2 F2 z2 F2- | FE A2 D2 G2- | %67
w: um, o-|ra pro no-|bis de- * * * *|* um, al-|* * * * * le-|lu- ia, al-|* * * le lu-|
 GF ED C2 F2- | F2 E2 A4 | z2 d4 c2- | c2 f4 e2 | f2 F2 A3 B | c2 d3 c c2- | cB A4 G2 | %74
w: |* * ia,|al- le|_ lu- *|ia, al- le- *|* lu- * *||
 A2 F3 D G2- | GF ED C2 F2- | F2 E2 A2 A2 | D3 E F2 D2 | D4 C4 | z2 D4 F2- | FE/D/ EF G2 F2 | %81
w: ia, al- * *|* * * * * le-|* lu- ia, al-|le- * * lu|ia, _|al le|_ _ _ _ _ _ lu-|
 F4 C4 | c6 d2- |"^b" dB e2 d2 B2- | BA d3 c B2 | A2 c2 d4 | c8 |] %87
w: ia, _|al le-|* * * lu- *|* * * * ia,|al le lu-|ia.|
V:2
 F4 G4 | F4 G4 | A4 A4 | z4 B4 | A4 G4 | B4 A4 | F4 G4 | F4 z4 | A4 G4 | A4 F4 | G4 F4 | F4 z4 | %12
w: Re- gi-|na coe-|* li,|lae-|ta- *|||re,|lae- ta-|||re,|
 B8 | G4 F4 | G4 A4 | F4 z4 | F4 c4 | c4 d4 | d4 c4 | B4 A4 | G4 F4 | G4 A4 | A4 z4 | B8- | B4 G4 | %25
w: al-|le- *|lu- *|ia,|qui- a|quem _|_ _|me- *|ru- *|i- *|sti|por-||
 B4 c4 | F4 G4 | F4 z4 | B8- | B4 G4 | B4 c4 | F4 G4 | F4 z4 | G4 A4 | G4 A4 | F4 G4 | F4 F4 | %37
w: |ta- *|re,|por-|||ta- *|re,|por- ta-|||* re,|
 z4 B4- | B4 G4 | F4 G4 | A4 F4 | A4 G4 | F4 E4 | F4 F4 | z4 B4 | c4 d4 | c4 B4 | c4 z4 | c8 | %49
w: al-|* le-||||* lu-|* ia,|re-|sur- re-||xit|sic-|
 F4 G4 | F4 z4 | B8 | G4 A4 | c8 | F4 G4 | G4 F4 | z4 c4- | c4 F4 | G4 A4 | B4 A4 | G4 F4 | E4 G4 | %62
w: ut di-|xit,|al|le- *|lu-|lu- *|ia, _|o-|* ra|pro _|no- *|* bis|_ de-|
 F4 F4 | z4 F4 | F4 A4 | c4 d4 | c4 B4 | G4 A4 | z4 c4 | B4 A4 | F4 G4 | F4 z4 | F4 A4 | c4 d4 | %74
w: * um,|al|le- *|||lu- ia,|al|le- lu-||ia,|al- le|_ _|
 c4 B4 | G4 A4 | z4 c4 | B4 A4 | F4 G4 | F4 z4 | G4 B4 | A4 G4 | A4 F4 | G4 G4 | F8- | F8- | F8 |] %87
w: |lu- ia,|al-|le- *|* lu-|ia,|al- le-|lu- ia,|al le-|* lu-|ia.|_||
V:3
 z4 C,4 | A,,2 B,,4 A,,G,, | F,,2 F,3 E, D,C, | B,,2 G,,2 G,,A,, B,,C, | D,E, F,2 _E,2 C,2 | %5
w: Re-|gi- * * *|na coe- * * *|* li, lae- * * *|* * * ta- *|
 G,4 F,3 E, | D,4 C,4 | z2 F,,2 B,,C, D,E, | F,2 D,2 _E,4 | D,2 D,4 B,,2- | %10
w: |* re,|Re- gi- * * *|* na coe-|li lae- ta-|
 B,,2 A,,G,, A,,2 B,,2- | B,,A,, D,2 C,4 | B,,4 z2 G,,2 | C,3 B,, A,,2 B,,2- | %14
w: ||re, al-|le- * * lu-|
 B,,G,, C,2 F,,2 F,2- | F,D, A,2 B,2 A,2- | A,G, F,4 E,2 | F,2 F,,2 B,,2 G,,2 | B,,C, D,E, F,4 | %19
w: * * * ia, al-|* * le- lu- *||ia, al- le- lu-|* * * * ia,|
 z2 D,4 F,2- | F,2 E,2 F,2 D,2 | C,4 F,,2 F,2- | F,2 D,3 E, F,2 | G,2 G,,3 A,, B,,C, | %24
w: qui- a|_ quem me- ru-|i- sti por-|* ta- * *|re, por- * * *|
 D,2 _E,4 D,C, | D,2 _E,3 C, F,2- | F,2 D,2 _E,4 | D,3 C, B,,A,, G,,2 | z2 G,3 F, _E,2 | %29
w: * ta- * *|||re, _ _ _ _|por- * *|
 D,2 _E,3 D, C,2 | G,,2 G,3 F, _E,2 | D,2 B,,2 z2 G,,2 | D,4 _E,3 D, | C,B,, _E,2 D,3 C, | %34
w: ta- * * *|re, por- * *|ta- re, por-|ta- * *||
 B,,A,, G,,2 F,,2 F,2- | F,E, D,2 C,4 | z2 F,4 D,2- | D,C, B,,A,, G,,2 G,2- | G,F, _E,4 C,2 | %39
w: * * re, por- ta-|* * * re,|al- le|_ _ _ _ _ lu-||
 D,2 B,,3 G,, C,2- | C,A,, D,4 B,,2 | F,4 z2 E,2 | F,2 D,2 C,B,, A,,G,, | A,,2 B,,2 B,,2 D,2- | %44
w: ||ia, al-|le- lu- * * * *|ia, re- sur- re-|
 D,C, B,,3 A,, G,,2 | F,,2 F,4 B,,2 | F,4 D,2 _E,2- | E,2 C,2 D,3 =E, | F,G, A,2 G,2 A,2- | %49
w: |xit, re- sur-|re- xit sic-|* ut di- *|* * * * xit,|
 A,2 F,4 E,2 | F,2 D,3 C, B,,A,, |"^b" G,,2 G,,2 E,4- | E,2 C,2 F,4 | z2 F,2 E,2 F,2 | %54
w: _ al- le-|lu- * * * *|ia, al le|_ lu- ia,|al- le- lu-|
"^b" D,2 B,,2 E,3 D, | C,2 B,,2 A,,2 B,,2 | G,,4 z2 F,,2- | F,,2 A,,4 B,,2- | B,,2 C,4 F,,2 | %59
w: ia, al- le- *|* lu- * *|ia, o-|* ra pro|_ no- bis|
 G,,A,, B,,C, D,E, F,2- | F,E,/D,/ E,2 F,2 F,,2 | A,,2 C,2 G,,A,, B,,C, | D,2 B,,3 A,, A,2- | %63
w: de- * * * * * *|* * * * um, o-|ra pro no- * * *|* * bis de-|
 A,2 G,2 A,4 | z2 D,3 E, F,2 | G,2 A,2 B,2 B,,2 | A,,2 F,,2 G,,4 | C,3 B,, A,,2 F,,2 | %68
w: * * um,|al- * *|le- lu- ia, al-|le- lu- ia,|al- le- lu- *|
 G,,4 z2 F,,2 | G,,A,, B,,C, D,E, F,G, | A,2 D,2 C,4 | z2 D,4 C,B,, | A,,2 B,,2 F,,3 G,, | %73
w: ia, al-|le- * * * * * * *|* lu- ia,|al- * *|* le- lu- *|
 A,,2 C,2 B,,4 | z2 A,,2 B,,2 G,,2 | C,3 B,, A,,2 F,,2 | G,,4 z2 F,,2 | G,,A,, B,,C, D,E, F,G, | %78
w: * * ia,|al- le- lu-||ia, al|le- * * * * * * *|
 A,2 F,4 E,2 | A,3 G, F,E, D,2 | C,4 z2 D,2- | D,2 F,4 E,2 | F,2 F,,2 A,,2 B,,2- | %83
w: * lu- *||ia, al-|* le lu-|ia, al- le- lu-|
"^b" B,,G,, C,2 z2 E,2 | D,2 B,,3 A,, D,2- | D,C, A,,2 B,,4 | F,,8 |] %87
w: * * ia, al-|le lu- * *||ia.|

